<?xml version="1.0" encoding="UTF-8"?>
<map version="1.10" tiledversion="1.12.2" orientation="orthogonal" renderorder="right-down" width="20" height="20" tilewidth="64" tileheight="64" infinite="0" nextlayerid="7" nextobjectid="36">
 <tileset firstgid="1" source="act_3_environment_v1.tsx"/>
 <layer id="1" name="Ground" width="20" height="20">
  <data encoding="csv">
4,4,4,2,2,2,4,4,4,4,2,2,4,4,2,4,2,2,4,2,
2,4,2,2,2,2,4,2,4,4,2,2,4,2,2,2,2,2,2,4,
2,4,2,2,4,2,4,2,4,2,4,2,4,4,4,2,2,2,2,2,
4,2,4,2,2,2,2,2,2,4,2,4,2,4,2,4,4,4,2,2,
2,2,4,4,2,4,2,4,4,2,2,4,2,4,4,4,4,2,4,2,
4,4,4,4,2,4,4,2,4,4,4,4,2,2,2,4,2,4,4,4,
2,4,2,4,4,2,4,2,4,4,4,4,2,4,2,2,4,2,2,2,
4,2,2,2,4,4,2,4,2,4,2,4,4,4,4,2,2,2,2,4,
4,4,2,2,2,4,4,2,2,2,2,4,2,2,2,4,4,2,4,2,
4,2,4,2,2,2,2,4,2,2,4,2,2,4,2,2,4,2,2,2,
2,4,2,4,4,2,2,2,2,4,4,2,4,2,4,4,4,4,2,2,
4,4,4,2,2,4,4,4,4,2,4,4,2,4,2,4,4,4,2,2,
4,4,2,4,2,2,4,2,2,4,2,4,4,4,4,2,4,4,4,4,
2,4,2,4,2,4,2,2,2,4,4,4,2,2,4,4,2,2,2,4,
2,4,2,2,2,2,2,4,4,4,4,2,4,4,4,2,4,4,4,4,
2,4,4,4,4,2,4,2,2,4,4,4,4,2,4,4,2,2,2,4,
2,2,2,2,2,4,4,2,2,2,4,2,2,4,4,4,4,2,4,2,
2,4,2,4,2,2,2,4,2,2,4,4,4,4,2,2,2,4,4,2,
4,4,4,4,2,4,2,4,4,4,2,2,2,2,2,2,2,2,4,4,
4,2,4,4,2,4,4,4,2,4,2,4,4,4,4,4,4,4,2,2
</data>
 </layer>
 <layer id="2" name="Walls" width="20" height="20">
  <data encoding="csv">
43,43,43,43,43,43,43,43,44,0,45,43,43,43,43,43,43,43,43,43,
0,0,0,0,0,0,0,0,14,0,12,0,0,0,0,0,0,0,0,0,
0,0,0,0,0,0,0,0,14,0,12,0,0,0,0,0,0,0,0,0,
0,0,0,0,0,0,0,0,14,0,12,0,0,0,0,0,0,0,0,0,
0,0,0,0,0,0,0,0,14,0,12,0,0,0,0,0,0,0,0,0,
0,0,0,0,0,0,0,0,14,0,12,0,0,0,0,0,0,0,0,0,
0,0,0,0,0,0,0,0,14,0,12,0,0,0,0,0,0,0,0,0,
0,0,0,45,43,43,43,43,44,0,45,43,43,43,43,44,0,0,0,0,
0,0,0,12,0,0,0,0,0,0,0,0,0,0,0,14,0,0,0,0,
43,43,43,12,0,0,0,0,0,0,0,0,0,0,0,14,43,43,43,43,
0,0,0,0,0,0,0,0,0,0,0,0,0,0,0,0,0,0,0,0,
43,43,43,12,0,0,0,0,0,0,0,0,0,0,0,14,43,43,43,43,
0,0,0,12,0,0,0,0,0,0,0,0,0,0,0,14,0,0,0,0,
0,0,0,39,22,22,22,22,22,22,22,22,22,22,22,38,0,0,0,0,
0,0,0,0,0,0,0,0,0,0,0,0,0,0,0,0,0,0,0,0,
0,0,0,0,0,0,0,0,0,0,0,0,0,0,0,0,0,0,0,0,
0,0,0,0,0,0,0,0,0,0,0,0,0,0,0,0,0,0,0,0,
0,0,0,0,0,0,0,0,0,0,0,0,0,0,0,0,0,0,0,0,
0,0,0,0,0,0,0,0,0,0,0,0,0,0,0,0,0,0,0,0,
0,0,0,0,0,0,0,0,0,0,0,0,0,0,0,0,0,0,0,0
</data>
 </layer>
 <objectgroup id="3" name="Entities">
  <object id="16" name="archer" x="296" y="595.333">
   <point/>
  </object>
  <object id="17" name="archer" x="874.667" y="586">
   <point/>
  </object>
  <object id="18" name="brute" x="611.333" y="842.667">
   <point/>
  </object>
  <object id="19" name="priest" x="316" y="843.333">
   <point/>
  </object>
  <object id="20" name="priest" x="927.333" y="844">
   <point/>
  </object>
  <object id="21" name="Torch" x="292" y="486">
   <point/>
  </object>
  <object id="22" name="Torch" x="432.667" y="484">
   <point/>
  </object>
  <object id="23" name="Torch" x="744.667" y="480">
   <point/>
  </object>
  <object id="24" name="Torch" x="877.333" y="483.333">
   <point/>
  </object>
 </objectgroup>
 <objectgroup id="6" name="Connectors">
  <object id="26" name="North" x="605" y="30">
   <point/>
  </object>
  <object id="27" name="West" x="22" y="676">
   <point/>
  </object>
  <object id="28" name="East" x="1252" y="679">
   <point/>
  </object>
 </objectgroup>
 <objectgroup id="4" name="Blocked">
  <object id="1" x="201" y="457" width="360" height="41"/>
  <object id="2" x="655" y="460" width="353" height="36"/>
  <object id="3" x="1029" y="588" width="244" height="35"/>
  <object id="4" x="1035" y="713" width="238" height="40"/>
  <object id="5" x="14" y="716" width="170" height="32"/>
  <object id="6" x="11" y="590" width="165" height="39"/>
  <object id="30" x="509" y="18" width="40" height="430"/>
  <object id="31" x="667" y="13" width="45" height="444"/>
  <object id="32" x="148" y="459" width="39" height="120"/>
  <object id="33" x="1034" y="463" width="44" height="112"/>
  <object id="34" x="1034" y="772" width="42" height="112"/>
  <object id="35" x="139" y="760" width="43" height="115"/>
 </objectgroup>
 <objectgroup id="5" name="Barriers">
  <object id="7" x="195" y="491" width="7" height="132"/>
  <object id="9" x="194" y="709.667" width="9.66667" height="177"/>
  <object id="10" x="210.667" y="880.667" width="809.333" height="9.33333"/>
  <object id="11" x="1017.33" y="707.333" width="2.66667" height="174.667"/>
  <object id="12" x="1014" y="456.667" width="8" height="171.333"/>
  <object id="13" x="566.667" y="2" width="4" height="502.667"/>
  <object id="14" x="643.333" y="4" width="9.33333" height="501.333"/>
 </objectgroup>
</map>
