<?xml version="1.0" encoding="UTF-8"?>
<map version="1.10" tiledversion="1.12.2" orientation="orthogonal" renderorder="right-down" width="13" height="9" tilewidth="64" tileheight="64" infinite="0" nextlayerid="9" nextobjectid="37">
 <tileset firstgid="1" source="My.tsx"/>
 <layer id="2" name="Ground" width="13" height="9">
  <data encoding="csv">
11,11,11,11,11,11,11,11,11,11,11,11,11,
11,11,6,7,7,6,6,6,6,6,6,6,6,
11,11,6,7,7,7,7,7,7,7,7,6,6,
11,6,7,7,9,9,9,9,6,6,7,7,6,
11,6,7,6,9,6,6,9,6,6,6,7,6,
11,6,9,9,9,9,9,9,6,6,6,6,6,
11,6,6,6,6,6,6,6,6,6,6,6,6,
11,6,6,6,6,6,6,6,6,6,6,6,6,
11,6,6,6,6,6,6,6,6,6,6,6,6
</data>
 </layer>
 <layer id="1" name="Walls" width="13" height="9">
  <data encoding="csv">
0,0,0,0,0,0,0,0,0,29,19,0,0,
0,5,14,17,17,17,17,17,17,33,19,0,0,
0,19,0,0,0,0,0,0,0,0,0,0,0,
0,19,0,0,0,0,0,0,0,4,19,0,0,
0,19,0,0,0,0,0,0,0,16,19,0,0,
0,19,0,0,0,0,0,0,0,16,19,0,0,
0,14,4,19,0,0,0,0,0,16,19,0,0,
0,0,16,19,0,0,0,0,0,16,19,0,0,
0,0,16,2,1,1,1,1,1,3,19,0,0
</data>
 </layer>
 <layer id="3" name="Decor" width="13" height="9">
  <data encoding="csv">
0,0,0,0,0,0,0,0,0,0,0,0,0,
0,0,49,0,49,68,49,0,49,0,0,0,0,
0,49,0,0,0,0,0,0,0,0,0,0,0,
0,0,0,0,0,0,0,0,0,0,0,0,0,
0,49,0,0,0,0,0,0,0,0,0,0,0,
0,0,0,0,0,0,0,0,0,0,0,0,0,
0,0,0,0,0,0,0,0,0,0,0,0,0,
0,0,0,0,0,0,0,0,0,0,0,0,0,
0,0,0,0,0,0,0,0,0,0,0,0,0
</data>
 </layer>
 <objectgroup id="6" name="Collision">
  <object id="14" x="128.5" y="66.5" width="444.5" height="60.5"/>
  <object id="15" x="63.5" y="68" width="63.5" height="124.5"/>
  <object id="17" x="-1.5" y="190" width="65" height="259.5"/>
  <object id="18" x="64" y="451.5" width="125" height="119.5"/>
  <object id="19" x="1" y="385" width="192" height="66.5"/>
  <object id="21" x="183.5" y="574.5" width="458" height="73.5"/>
  <object id="22" x="578.5" y="3" width="60.5" height="122.5"/>
  <object id="23" x="576" y="195" width="64.5" height="379.5"/>
  <object id="24" x="187.5" y="514" width="440" height="59"/>
  <object id="25" x="624" y="-68" width="222.667" height="68"/>
  <object id="26" x="831.333" y="-69.3333" width="104" height="640.667"/>
  <object id="27" x="626.667" y="572" width="299.333" height="76"/>
 </objectgroup>
 <objectgroup id="8" name="Entities">
  <object id="28" name="Player_spawn" x="224" y="290.667">
   <point/>
  </object>
  <object id="29" name="Torch" x="221.333" y="94">
   <ellipse/>
  </object>
  <object id="30" name="Torch" x="478.5" y="92.9375">
   <ellipse/>
  </object>
  <object id="34" name="Chest" x="481.333" y="285.333">
   <ellipse/>
  </object>
  <object id="35" x="319.333" y="-58">
   <ellipse/>
  </object>
  <object id="36" x="139.333" y="-76">
   <ellipse/>
  </object>
 </objectgroup>
</map>
