<?xml version="1.0" encoding="UTF-8"?>
<map version="1.10" tiledversion="1.12.2" orientation="orthogonal" renderorder="right-down" width="3" height="6" tilewidth="64" tileheight="64" infinite="0" nextlayerid="11" nextobjectid="15">
 <tileset firstgid="1" source="act3_floor_64.tsx"/>
 <tileset firstgid="9" source="items.tsx"/>
 <tileset firstgid="177" source="my_tiles_textured_v9.tsx"/>
 <layer id="1" name="Ground" width="3" height="6">
  <data encoding="csv">
0,5,0,
0,1,0,
0,3,0,
0,6,0,
0,6,0,
0,3,0
</data>
 </layer>
 <layer id="3" name="WallsBack_02" width="3" height="6">
  <data encoding="csv">
0,0,0,
0,0,0,
0,0,0,
0,0,0,
0,0,0,
0,0,0
</data>
 </layer>
 <layer id="2" name="WallsBack_01" width="3" height="6">
  <data encoding="csv">
186,0,188,
186,0,188,
186,0,188,
186,0,188,
186,0,188,
0,0,0
</data>
 </layer>
 <layer id="6" name="DecorBack_02" width="3" height="6">
  <data encoding="csv">
0,0,0,
0,0,0,
0,0,0,
0,0,0,
0,0,0,
0,0,0
</data>
 </layer>
 <layer id="4" name="WallsFront_01" width="3" height="6">
  <data encoding="csv">
0,0,0,
0,0,0,
0,0,0,
0,0,0,
0,0,0,
186,0,188
</data>
 </layer>
 <layer id="5" name="DecorFront_01" width="3" height="6">
  <data encoding="csv">
0,0,0,
0,0,0,
0,0,0,
0,0,0,
0,0,0,
0,0,0
</data>
 </layer>
 <objectgroup id="7" name="Barriers"/>
 <objectgroup id="8" name="Blocked">
  <object id="7" x="8.5" y="10" width="43" height="366.5"/>
  <object id="14" x="143.5" y="8.25" width="43" height="366.5"/>
 </objectgroup>
 <objectgroup id="9" name="Entities"/>
 <objectgroup id="10" name="Connectors">
  <object id="12" name="exit_north" x="98.4384" y="30.6061">
   <point/>
  </object>
  <object id="13" name="exit_south" x="99.5" y="370">
   <point/>
  </object>
 </objectgroup>
</map>
