<?xml version="1.0" encoding="UTF-8"?>
<map version="1.10" tiledversion="1.12.2" orientation="orthogonal" renderorder="right-down" width="15" height="10" tilewidth="64" tileheight="64" infinite="0" nextlayerid="18" nextobjectid="23">
 <tileset firstgid="1" source="act3_floor_64.tsx"/>
 <tileset firstgid="9" source="items.tsx"/>
 <tileset firstgid="177" source="my_tiles_textured_v9.tsx"/>
 <layer id="1" name="Ground" width="15" height="10">
  <data encoding="csv">
0,0,0,0,0,0,0,3,0,0,0,0,0,0,0,
0,0,0,0,0,0,0,5,0,0,0,0,0,0,0,
0,7,7,2,6,7,5,6,5,7,2,5,8,1,0,
0,7,7,5,8,1,2,2,8,2,4,1,4,4,0,
0,3,1,3,2,1,2,1,7,1,7,3,5,7,0,
0,3,6,6,6,3,1,7,4,3,5,2,1,3,0,
0,4,5,2,2,4,1,2,6,3,1,8,3,1,0,
0,1,1,3,1,2,7,3,3,3,2,1,8,3,0,
0,5,3,4,2,7,3,4,5,3,6,1,3,2,0,
0,0,8,2,6,5,5,6,8,8,2,1,1,0,0
</data>
 </layer>
 <layer id="8" name="GroundDetails_01" width="15" height="10">
  <data encoding="csv">
0,0,0,0,0,0,0,0,0,0,0,0,0,0,0,
0,0,0,0,0,0,0,0,0,0,0,0,0,0,0,
0,104,0,0,0,0,0,0,0,0,0,0,0,36,0,
0,0,0,111,0,0,0,0,0,0,0,0,0,0,0,
0,0,0,0,0,46,0,0,0,0,0,45,0,0,0,
0,0,0,0,0,0,0,0,0,0,0,0,108,0,0,
0,63,0,0,0,0,0,47,0,0,0,0,0,0,0,
0,0,0,109,0,0,0,0,0,0,0,0,0,0,0,
0,0,0,0,0,0,0,35,0,0,0,0,0,82,0,
0,0,0,0,0,0,0,0,0,0,0,0,0,0,0
</data>
 </layer>
 <layer id="9" name="GroundDetails_02" width="15" height="10">
  <data encoding="csv">
0,0,0,0,0,0,0,0,0,0,0,0,0,0,0,
0,0,0,0,0,0,0,0,0,0,0,0,0,0,0,
0,43,0,0,0,0,0,0,0,0,0,0,0,39,0,
0,0,0,59,0,0,0,0,0,0,0,0,0,0,0,
0,0,0,0,0,0,0,0,0,0,0,0,0,0,0,
0,0,0,0,0,0,0,0,0,0,0,0,0,0,0,
0,0,0,0,0,0,0,0,0,0,0,100,0,0,0,
0,0,0,0,0,0,0,0,0,0,0,0,0,0,0,
0,0,0,0,0,0,0,0,0,0,0,0,0,0,0,
0,0,0,0,0,0,0,0,0,0,0,0,0,0,0
</data>
 </layer>
 <layer id="3" name="WallsBack_02" width="15" height="10">
  <data encoding="csv">
0,0,0,0,0,0,186,0,188,0,0,0,0,0,0,
0,0,0,0,0,0,0,0,0,0,0,0,0,0,0,
0,0,0,0,0,0,0,0,0,0,0,0,0,0,0,
0,0,0,0,0,0,0,0,0,0,0,0,0,0,0,
0,0,0,0,0,0,0,0,0,0,0,0,0,0,0,
0,0,0,0,0,0,0,0,0,0,0,0,0,0,0,
0,0,0,0,0,0,0,0,0,0,0,0,0,0,0,
0,0,0,0,0,0,0,0,0,0,0,0,0,0,0,
0,0,0,0,0,0,0,0,0,0,0,0,0,0,0,
0,0,0,0,0,0,0,0,0,0,0,0,0,0,0
</data>
 </layer>
 <layer id="2" name="WallsBack_01" width="15" height="10">
  <data encoding="csv">
177,178,178,178,178,178,178,178,178,178,178,178,178,178,179,
186,187,187,187,187,187,187,247,187,187,187,187,187,187,188,
186,0,0,0,0,0,0,0,0,0,0,0,0,0,188,
186,0,0,0,0,0,0,0,0,0,0,0,0,0,188,
186,0,0,0,0,0,0,0,0,0,0,0,0,0,188,
186,0,0,0,0,0,0,0,0,0,0,0,0,0,188,
186,0,0,0,0,0,0,0,0,0,0,0,0,0,188,
186,0,0,0,0,0,0,0,0,0,0,0,0,0,188,
186,0,0,0,0,0,0,0,0,0,0,0,0,0,188,
0,0,0,0,0,0,0,0,0,0,0,0,0,0,0
</data>
 </layer>
 <layer id="5" name="WallsFront_02" width="15" height="10">
  <data encoding="csv">
0,0,0,0,0,0,0,0,0,0,0,0,0,0,0,
0,0,0,0,0,0,0,0,0,0,0,0,0,0,0,
0,0,0,0,0,0,0,0,0,0,0,0,0,0,0,
0,0,0,0,0,0,0,0,0,0,0,0,0,0,0,
0,0,234,178,178,178,178,178,178,178,232,0,0,0,0,
0,0,243,187,187,187,187,187,187,187,241,0,0,0,0,
0,0,0,0,0,0,0,0,0,0,0,0,0,0,0,
0,0,0,0,0,0,0,0,0,0,0,0,0,0,0,
0,0,0,0,0,0,0,0,0,0,0,0,0,0,0,
0,0,0,0,0,0,0,0,0,0,0,0,0,0,0
</data>
 </layer>
 <layer id="4" name="WallsFront_01" width="15" height="10">
  <data encoding="csv">
0,0,0,0,0,0,0,0,0,0,0,0,0,0,0,
0,0,0,0,0,0,0,0,0,0,0,0,0,0,0,
0,0,0,0,0,0,0,0,0,0,0,0,0,0,0,
0,0,0,0,0,0,0,0,0,0,0,0,0,0,0,
0,0,0,0,0,0,0,0,0,0,0,0,0,0,0,
0,0,0,0,0,0,0,0,0,0,0,0,0,0,0,
0,0,0,0,0,0,0,0,0,0,0,0,0,0,0,
0,0,0,0,0,0,0,0,0,0,0,0,0,0,0,
0,0,0,0,0,0,0,0,0,0,0,0,0,0,0,
211,2147483853,207,207,207,207,207,0,207,207,207,207,207,205,2147483859
</data>
 </layer>
 <layer id="10" name="DecorFront_01" width="15" height="10">
  <data encoding="csv">
0,0,0,0,0,0,0,0,0,0,0,0,0,0,0,
0,0,0,0,0,0,0,0,0,0,0,0,0,0,0,
0,0,0,0,0,0,0,0,0,0,0,0,0,0,0,
0,0,0,0,0,0,0,0,0,0,0,0,0,0,0,
0,0,0,0,0,0,0,0,0,0,0,0,0,0,0,
0,0,106,106,106,106,106,106,106,106,106,0,0,0,0,
0,0,0,0,0,0,0,0,0,0,0,0,0,0,0,
0,0,0,0,0,0,0,0,0,0,0,0,0,0,0,
0,0,0,0,0,0,0,0,0,0,73,0,0,0,0,
0,0,0,0,0,0,0,0,0,0,0,0,0,0,0
</data>
 </layer>
 <layer id="11" name="DecorFront_02" width="15" height="10">
  <data encoding="csv">
0,0,0,0,0,0,0,0,0,0,0,0,0,0,0,
0,0,0,0,0,0,0,0,0,0,0,0,0,0,0,
0,0,0,0,0,0,0,0,0,0,0,0,0,0,0,
0,0,0,0,0,0,0,0,0,0,0,0,0,0,0,
0,0,0,0,0,0,0,123,123,123,123,0,0,0,0,
0,0,0,22,0,121,98,92,132,0,0,0,0,0,0,
0,0,0,0,0,0,0,0,0,0,0,0,0,0,0,
0,0,0,0,0,0,0,0,0,0,0,0,0,0,0,
0,0,0,0,0,0,0,0,0,0,0,0,0,0,0,
0,0,0,132,0,0,125,253,135,0,0,136,0,0,0
</data>
 </layer>
 <layer id="7" name="DecorBack_02" width="15" height="10">
  <data encoding="csv">
0,0,0,0,0,0,0,0,0,0,0,0,0,0,0,
0,75,0,96,0,76,97,0,0,0,96,92,95,19,0,
0,0,0,0,0,0,0,0,0,0,0,0,0,0,0,
0,0,0,0,0,0,0,0,0,0,0,0,0,0,0,
0,0,0,0,0,0,0,0,0,0,0,0,0,0,0,
0,0,0,0,0,0,0,0,0,0,0,0,0,0,0,
0,0,0,0,0,0,0,0,0,0,0,0,0,0,0,
0,0,0,0,0,0,0,0,0,0,0,0,0,0,0,
0,0,0,0,0,0,0,0,0,0,0,0,0,0,0,
0,0,0,0,0,0,0,0,0,0,0,0,0,0,0
</data>
 </layer>
 <layer id="6" name="DecorBack_01" width="15" height="10">
  <data encoding="csv">
0,0,0,0,0,0,0,0,0,0,73,0,0,0,0,
0,0,0,97,93,93,0,0,30,74,85,0,86,0,0,
0,0,0,0,0,0,0,0,0,0,0,0,0,0,0,
0,0,0,0,0,0,0,0,0,0,0,0,0,0,0,
0,0,0,0,0,0,0,0,0,0,0,0,0,0,0,
0,0,0,0,0,0,0,0,0,0,0,0,0,0,0,
0,0,0,0,0,0,0,0,0,0,0,0,0,0,0,
0,0,0,0,0,0,0,0,0,0,0,0,0,0,0,
0,0,0,0,0,0,0,0,0,0,0,0,0,0,0,
0,0,0,0,0,0,0,0,0,0,0,0,0,0,0
</data>
 </layer>
 <objectgroup id="12" name="Entities">
  <object id="1" name="torches_v1" x="288" y="98.6667">
   <point/>
  </object>
  <object id="2" name="torches_v1" x="671.333" y="95.3333">
   <point/>
  </object>
  <object id="3" name="torches_v1" x="611.333" y="352.667">
   <point/>
  </object>
  <object id="4" name="torches_v1" x="287.333" y="351.333">
   <point/>
  </object>
  <object id="20" name="Spawn" x="480" y="549.333">
   <point/>
  </object>
 </objectgroup>
 <objectgroup id="14" name="Connectors">
  <object id="7" name="exit_north" x="479.333" y="32">
   <point/>
  </object>
  <object id="8" name="exit_back" x="480.667" y="616.667">
   <point/>
  </object>
 </objectgroup>
 <objectgroup id="16" name="Blocked">
  <object id="9" x="14" y="72.6667" width="412" height="40.6667"/>
  <object id="10" x="532" y="75.3333" width="409.333" height="32.6667"/>
  <object id="11" x="136" y="339.333" width="566" height="24"/>
  <object id="13" x="846" y="592" width="93.333" height="36"/>
  <object id="14" x="16" y="594" width="96" height="24"/>
  <object id="15" x="904" y="38.6667" width="44" height="590"/>
  <object id="16" x="12.6667" y="14.6667" width="40.6667" height="605.333"/>
  <object id="17" x="47.3333" y="15.3333" width="380" height="24.6667"/>
  <object id="18" x="538" y="12" width="410" height="28.6667"/>
 </objectgroup>
 <objectgroup id="17" name="Barriers">
  <object id="21" x="115" y="630" width="331.5" height="3.5"/>
  <object id="22" x="520" y="628.5" width="327" height="5.5"/>
 </objectgroup>
</map>
