<?xml version="1.0" encoding="UTF-8"?>
<map version="1.10" tiledversion="1.12.2" orientation="orthogonal" renderorder="right-down" width="10" height="8" tilewidth="64" tileheight="64" infinite="0" nextlayerid="13" nextobjectid="15">
 <tileset firstgid="1" source="act3_floor_64.tsx"/>
 <tileset firstgid="9" source="items.tsx"/>
 <tileset firstgid="177" source="my_tiles_textured_v9.tsx"/>
 <layer id="1" name="Ground" width="10" height="8">
  <data encoding="csv">
0,0,0,0,0,0,0,0,0,0,
0,0,0,0,0,0,0,0,0,0,
0,2,6,8,4,7,1,5,3,0,
0,7,5,3,8,8,6,7,4,0,
0,6,1,5,7,4,1,8,7,0,
0,5,1,2,4,8,4,1,5,0,
0,5,2,6,4,2,2,1,8,0,
0,0,2,1,4,5,8,8,0,0
</data>
 </layer>
 <layer id="8" name="GroundDetails_01" width="10" height="8">
  <data encoding="csv">
0,0,0,0,0,0,0,0,0,0,
0,0,0,0,0,0,0,0,0,0,
0,0,0,0,105,2147483739,0,0,91,0,
0,3221225563,0,0,0,0,0,0,0,0,
0,0,0,0,91,0,0,0,0,0,
0,78,0,0,0,0,0,0,78,0,
0,0,0,0,0,0,0,0,0,0,
0,0,0,0,0,0,0,0,0,0
</data>
 </layer>
 <layer id="9" name="GroundDetails_02" width="10" height="8">
  <data encoding="csv">
0,0,0,0,0,0,0,0,0,0,
0,0,0,0,0,0,0,0,0,0,
0,0,0,0,0,0,63,0,108,0,
0,0,0,0,0,0,0,0,0,0,
0,0,0,0,0,0,0,0,0,0,
0,0,0,0,0,0,80,0,0,0,
0,0,0,0,0,0,0,0,0,0,
0,0,0,0,0,0,0,0,0,0
</data>
 </layer>
 <layer id="2" name="WallsBack_01" width="10" height="8">
  <data encoding="csv">
177,178,178,178,178,178,178,178,178,179,
186,187,187,187,187,187,187,245,187,188,
186,0,0,0,0,0,0,0,0,188,
186,0,0,0,0,0,0,0,0,188,
186,0,0,0,0,0,0,0,0,188,
186,0,0,0,0,0,0,0,0,188,
186,0,0,0,0,0,0,0,0,188,
0,0,0,0,0,0,0,0,0,0
</data>
 </layer>
 <layer id="3" name="WallsFront_01" width="10" height="8">
  <data encoding="csv">
0,0,0,0,0,0,0,0,0,0,
0,0,0,0,0,0,0,0,0,0,
0,0,0,0,0,0,0,0,0,0,
0,0,0,0,0,0,0,0,0,0,
0,0,0,0,0,0,0,0,0,0,
0,0,0,0,0,0,0,0,0,0,
0,0,0,0,0,0,0,0,0,0,
211,209,0,207,207,207,207,207,205,2147483859
</data>
 </layer>
 <layer id="5" name="DecorFront_01" width="10" height="8">
  <data encoding="csv">
0,0,0,0,0,0,0,0,0,0,
0,0,0,0,0,0,0,0,0,0,
0,0,0,0,0,0,0,0,0,0,
0,0,0,0,0,0,0,0,0,0,
0,0,0,0,0,0,0,0,0,0,
0,0,0,0,0,0,0,0,0,0,
0,0,0,0,0,0,0,0,0,0,
0,0,0,0,0,0,0,0,0,0
</data>
 </layer>
 <layer id="6" name="DecorFront_02" width="10" height="8">
  <data encoding="csv">
0,0,0,0,0,0,0,0,0,0,
0,0,0,0,0,0,0,0,0,0,
0,0,0,0,0,0,0,0,0,0,
0,0,0,0,0,0,0,0,0,0,
0,0,0,0,0,0,0,0,0,0,
0,0,0,0,0,0,0,0,0,0,
0,0,0,0,0,0,0,0,0,0,
0,0,0,135,132,123,123,123,0,0
</data>
 </layer>
 <layer id="7" name="DecorBack_01" width="10" height="8">
  <data encoding="csv">
0,0,0,73,0,0,0,0,0,0,
0,74,17,85,15,0,77,255,76,0,
0,0,29,0,0,0,0,0,0,0,
0,0,0,0,0,0,0,0,0,0,
0,0,0,0,0,0,0,0,0,0,
0,0,0,0,0,0,0,0,0,0,
0,0,0,0,0,0,0,0,0,0,
0,0,0,0,0,0,0,0,0,0
</data>
 </layer>
 <objectgroup id="10" name="Blocked">
  <object id="3" x="12.6667" y="13.3333" width="430.667" height="86.6667"/>
  <object id="4" x="522.667" y="18" width="98.6667" height="85.3333"/>
  <object id="5" x="20.6667" y="458" width="86.6667" height="38.6667"/>
  <object id="6" x="520.167" y="454" width="93.167" height="48"/>
 </objectgroup>
 <objectgroup id="11" name="Barriers">
  <object id="7" x="581.333" y="112" width="8.66667" height="347.333"/>
  <object id="8" x="48" y="86.6667" width="12.6667" height="377.333"/>
 </objectgroup>
 <objectgroup id="12" name="Entities">
  <object id="11" name="torches_v1" x="356" y="99.3333">
   <point/>
  </object>
 </objectgroup>
 <objectgroup id="4" name="Connectors">
  <object id="1" name="exit_up" x="481.332" y="108">
   <point/>
  </object>
  <object id="2" name="exit_south" x="158" y="501.333">
   <point/>
  </object>
 </objectgroup>
</map>
