<?xml version="1.0" encoding="UTF-8"?>
<map version="1.10" tiledversion="1.12.2" orientation="orthogonal" renderorder="right-down" width="17" height="15" tilewidth="64" tileheight="64" infinite="0" nextlayerid="17" nextobjectid="55">
 <tileset firstgid="1" source="items.tsx"/>
 <tileset firstgid="169" source="act3_floor_64.tsx"/>
 <tileset firstgid="177" source="my_tiles_textured_v9.tsx"/>
 <layer id="1" name="Ground" width="17" height="15">
  <data encoding="csv">
0,0,0,0,0,0,0,0,0,0,0,0,0,0,0,0,0,
0,175,171,174,174,170,172,172,175,175,170,172,170,172,176,175,0,
0,173,169,172,176,173,174,173,175,175,169,170,171,176,175,169,0,
0,171,176,174,170,174,169,174,173,171,175,176,171,170,169,176,0,
0,169,174,170,169,172,173,170,174,171,170,169,171,174,176,174,0,
0,170,173,169,174,170,176,172,176,176,169,173,172,170,171,175,0,
0,171,176,176,175,173,170,173,176,173,169,169,175,171,172,169,0,
0,173,176,170,170,174,176,171,172,173,175,175,171,170,174,174,0,
0,169,171,169,172,170,170,171,170,173,175,172,173,173,173,172,0,
0,176,169,175,175,173,175,170,173,174,172,175,169,176,176,174,0,
0,171,173,173,170,174,172,174,175,172,173,174,175,171,169,170,0,
0,175,173,175,169,176,174,175,176,172,173,174,175,173,170,175,0,
0,0,176,172,175,173,176,169,173,169,173,171,174,175,176,0,0,
0,0,0,173,175,169,169,172,172,169,173,171,171,171,0,0,0,
0,0,0,0,173,173,175,176,173,175,172,171,172,0,0,0,0
</data>
 </layer>
 <layer id="6" name="WallsBack" width="17" height="15">
  <data encoding="csv">
177,178,178,178,178,178,178,178,178,178,178,178,178,178,178,178,179,
186,187,187,245,187,187,187,187,187,187,187,187,187,187,187,187,188,
186,0,0,0,0,0,0,0,0,0,0,0,0,0,0,0,188,
186,0,0,0,0,0,0,0,0,0,0,0,0,0,0,0,188,
186,0,0,0,0,0,0,0,0,0,0,0,0,0,0,0,188,
186,0,0,0,0,0,0,0,0,0,0,0,0,0,0,0,188,
186,0,0,0,0,0,0,0,0,0,0,0,0,0,0,0,188,
186,0,0,0,0,0,0,0,0,0,0,0,0,0,0,0,188,
186,0,0,0,0,0,0,0,0,0,0,0,0,0,0,0,188,
186,0,0,0,0,0,0,0,0,0,0,0,0,0,0,0,188,
186,0,0,0,0,0,0,0,0,0,0,0,0,0,0,0,188,
186,0,0,0,0,0,0,0,0,0,0,0,0,0,0,0,188,
0,0,0,0,0,0,0,0,0,0,0,0,0,0,0,0,0,
0,0,0,0,0,0,0,0,0,0,0,0,0,0,0,0,0,
0,0,0,0,0,0,0,0,0,0,0,0,0,0,0,0,0
</data>
 </layer>
 <layer id="5" name="WallsFront" width="17" height="15">
  <data encoding="csv">
0,0,0,0,0,0,0,0,0,0,0,0,0,0,0,0,0,
0,0,0,0,0,0,0,0,0,0,0,0,0,0,0,0,0,
0,0,0,0,0,0,0,0,0,0,0,0,0,0,0,0,0,
0,0,0,0,0,0,0,0,0,0,0,0,0,0,0,0,0,
0,0,0,0,0,0,0,0,0,0,0,0,0,0,0,0,0,
0,0,0,0,0,0,0,0,0,0,0,0,0,0,0,0,0,
0,0,0,0,0,0,0,0,0,0,0,0,0,0,0,0,0,
0,0,0,0,0,0,0,0,0,0,0,0,0,0,0,0,0,
0,0,0,0,0,0,0,0,0,0,0,0,0,0,0,0,0,
0,0,0,0,0,0,0,0,0,0,0,0,0,0,0,0,0,
0,0,0,0,0,0,0,0,0,0,0,0,0,0,0,0,0,
0,0,0,0,0,0,0,0,0,0,0,0,0,0,0,0,0,
211,209,0,0,0,0,0,0,0,0,0,0,0,0,0,2147483857,2147483859,
0,211,209,0,0,0,0,0,0,0,0,0,0,0,2147483857,2147483859,0,
0,0,211,2147483853,207,207,207,207,207,207,207,207,207,205,2147483859,0,0
</data>
 </layer>
 <layer id="2" name="Gate" width="17" height="15">
  <data encoding="csv">
0,0,0,0,0,0,0,0,0,0,0,0,0,0,0,0,0,
0,0,0,0,0,0,0,0,0,0,0,0,0,0,0,0,0,
0,0,0,0,0,0,0,0,0,0,0,0,0,0,0,0,0,
0,0,0,0,0,0,0,0,0,0,0,0,0,0,0,0,0,
0,0,0,0,0,0,0,0,0,0,0,0,0,0,0,0,0,
0,0,0,0,0,0,0,0,0,0,0,0,0,0,0,0,0,
0,0,0,0,0,0,0,0,0,0,0,0,0,0,0,0,0,
0,0,0,0,0,0,0,0,0,0,0,0,0,0,0,0,0,
0,0,0,0,0,0,0,0,0,0,0,0,0,0,0,0,0,
0,0,0,0,0,0,0,0,0,0,0,0,0,0,0,0,0,
0,0,0,0,0,0,0,0,0,0,0,0,0,0,0,0,0,
0,0,0,0,0,0,0,0,0,0,0,0,0,0,0,0,0,
0,0,0,0,0,0,0,0,0,0,0,0,0,0,0,0,0,
0,0,0,0,0,0,0,106,107,108,0,0,0,0,0,0,0,
0,0,0,0,0,0,0,118,119,120,0,0,0,0,0,0,0
</data>
 </layer>
 <layer id="16" name="GroundDetails_01" width="17" height="15">
  <data encoding="csv">
0,0,0,0,0,0,0,0,0,0,0,0,0,0,0,0,0,
0,0,0,0,0,0,0,0,0,0,0,0,0,0,0,0,0,
0,2147483739,0,0,0,39,0,0,0,40,0,0,0,0,0,91,0,
0,0,0,0,0,0,0,0,0,0,0,0,0,0,0,0,0,
0,0,55,0,0,28,0,0,0,0,0,95,0,0,0,0,0,
0,0,0,0,0,0,0,0,0,0,0,0,0,0,0,0,0,
0,0,0,0,0,94,0,0,25,26,0,0,0,0,0,0,0,
0,38,0,0,0,0,0,103,0,27,0,0,0,91,0,0,0,
0,0,0,0,0,0,0,0,0,0,0,0,0,0,0,0,0,
0,0,0,0,0,0,0,0,0,0,0,0,0,0,0,0,0,
0,0,0,0,0,0,0,0,97,0,0,0,0,102,0,0,0,
0,91,0,0,0,0,0,0,0,0,0,99,0,0,0,56,0,
0,0,0,0,99,0,100,0,0,0,0,0,0,0,0,0,0,
0,0,0,0,0,0,0,0,0,0,0,0,0,0,0,0,0,
0,0,0,0,0,0,0,0,0,0,0,0,0,0,0,0,0
</data>
 </layer>
 <layer id="10" name="Objects" width="17" height="15">
  <data encoding="csv">
0,0,0,0,0,0,0,0,0,0,0,0,0,0,0,0,0,
0,0,0,0,0,0,0,0,0,0,0,0,0,0,0,0,0,
0,0,0,0,0,0,0,0,0,0,0,0,0,0,0,0,0,
0,0,0,0,0,0,0,0,0,0,0,0,0,0,0,0,0,
0,0,0,105,0,0,0,0,0,0,0,0,0,105,0,0,0,
0,0,0,0,0,0,0,0,0,0,0,0,0,0,0,0,0,
0,0,0,0,0,0,0,109,110,111,0,0,0,0,0,0,0,
0,0,0,105,0,0,0,121,122,123,0,0,0,105,0,0,0,
0,0,0,0,0,0,0,0,0,0,0,0,0,0,0,0,0,
0,0,0,0,0,0,0,0,0,0,0,0,0,0,0,0,0,
0,0,0,105,0,0,0,0,0,0,0,0,0,105,0,0,0,
0,0,0,0,0,0,0,0,0,0,0,0,0,0,0,0,0,
0,0,0,0,0,0,0,0,0,0,0,0,0,0,0,0,0,
0,0,0,0,0,0,0,0,0,0,0,0,0,0,0,0,0,
0,0,0,0,0,0,0,0,0,0,0,0,0,0,0,0,0
</data>
 </layer>
 <layer id="15" name="DecorBack_02" width="17" height="15">
  <data encoding="csv">
0,0,0,0,0,0,0,0,0,0,0,0,0,0,0,0,0,
0,5,87,255,0,0,88,14,0,0,90,0,112,89,0,112,0,
0,0,0,0,0,0,0,0,0,0,0,0,0,0,0,0,0,
0,0,0,0,0,0,0,0,0,0,0,0,0,0,0,0,0,
0,0,0,0,0,0,0,0,0,0,0,0,0,0,0,0,0,
0,0,0,0,0,0,0,0,0,0,0,0,0,0,0,0,0,
0,0,0,0,0,0,0,0,0,0,0,0,0,0,0,0,0,
0,0,0,0,0,0,0,0,0,0,0,0,0,0,0,0,0,
0,0,0,0,0,0,0,0,0,0,0,0,0,0,0,0,0,
0,0,0,0,0,0,0,0,0,0,0,0,0,0,0,0,0,
0,0,0,0,0,0,0,0,0,0,0,0,0,0,0,0,0,
0,0,0,0,0,0,0,0,0,0,0,0,0,0,0,0,0,
0,0,0,0,0,0,0,0,0,0,0,0,0,0,0,0,0,
0,0,0,0,0,0,0,0,0,0,0,0,0,0,0,0,0,
0,0,0,0,0,0,0,0,0,0,0,0,0,0,0,0,0
</data>
 </layer>
 <layer id="3" name="DecorBack_01" width="17" height="15">
  <data encoding="csv">
0,0,0,0,0,0,0,0,0,0,0,0,0,0,0,0,0,
0,7,0,0,66,0,80,78,0,80,78,0,80,78,0,0,0,
0,0,0,0,0,0,0,0,0,0,0,0,0,0,0,0,0,
0,0,0,0,0,0,0,0,0,0,0,0,0,0,0,0,0,
0,0,0,0,0,0,0,0,0,0,0,0,0,0,0,0,0,
0,0,0,0,0,0,0,0,0,0,0,0,0,0,0,0,0,
0,0,0,0,0,0,0,0,0,111,0,0,0,0,0,0,0,
0,0,0,0,0,0,0,0,0,0,0,0,0,0,0,0,0,
0,0,0,0,0,0,0,0,0,0,0,0,0,0,0,0,0,
0,0,0,0,0,0,0,0,0,0,0,0,0,0,0,0,0,
0,0,0,0,0,0,0,0,0,0,0,0,0,0,0,0,0,
0,0,0,0,0,0,0,0,0,0,0,0,0,0,0,0,0,
0,0,0,0,0,0,0,0,0,0,0,0,0,0,0,0,0,
0,0,0,0,0,0,0,0,0,0,0,0,0,0,0,0,0,
0,0,0,0,0,0,0,0,0,0,0,0,0,0,0,0,0
</data>
 </layer>
 <layer id="14" name="DecorFront_01" width="17" height="15">
  <data encoding="csv">
0,0,0,0,0,0,0,0,0,0,0,0,0,0,0,0,0,
0,0,0,0,0,0,0,0,0,0,0,0,0,0,0,0,0,
0,0,0,0,0,0,0,0,0,0,0,0,0,0,0,0,0,
0,0,0,0,0,0,0,0,0,0,0,0,0,0,0,0,0,
0,0,0,0,0,0,0,0,0,0,0,0,0,0,0,0,0,
0,0,0,0,0,0,0,0,0,0,0,0,0,0,0,0,0,
0,0,0,0,0,0,0,0,0,0,0,0,0,0,0,0,0,
0,0,0,0,0,0,0,0,0,0,0,0,0,0,0,0,0,
0,0,0,0,0,0,0,0,0,0,0,0,0,0,0,0,0,
0,0,0,0,0,0,0,0,0,0,0,0,0,0,0,0,0,
0,0,0,0,0,0,0,0,0,0,0,0,0,0,0,0,0,
0,0,0,0,0,0,0,0,0,0,0,0,0,0,0,0,0,
0,0,0,0,0,0,0,0,0,0,0,0,0,0,0,0,0,
0,0,0,0,0,0,0,0,0,0,0,0,0,0,0,0,0,
0,0,0,0,127,0,126,0,0,0,126,0,128,0,0,0,0
</data>
 </layer>
 <objectgroup id="13" name="Blocked">
  <object id="35" x="21" y="25" width="147" height="82"/>
  <object id="36" x="287" y="20" width="776" height="85"/>
  <object id="37" x="1042" y="48" width="34" height="896"/>
  <object id="38" x="983" y="801" width="82" height="143"/>
  <object id="39" x="869" y="918" width="188" height="31"/>
  <object id="40" x="922" y="855" width="152" height="27"/>
  <object id="41" x="15" y="909" width="212" height="35"/>
  <object id="42" x="9" y="46" width="34" height="885"/>
  <object id="43" x="78" y="796" width="29" height="96"/>
  <object id="45" x="137" y="849" width="43" height="36"/>
  <object id="48" x="209.333" y="273.333" width="28" height="30"/>
  <object id="49" x="212" y="466" width="27.3333" height="31.3333"/>
  <object id="50" x="211.333" y="658.667" width="30" height="28"/>
  <object id="51" x="487.333" y="398" width="118" height="84.6667"/>
  <object id="52" x="850.667" y="276" width="30" height="24"/>
  <object id="53" x="851.333" y="469.333" width="25.3333" height="24.6667"/>
  <object id="54" x="844.667" y="658.667" width="33.3333" height="26"/>
 </objectgroup>
 <objectgroup id="9" name="Barriers">
  <object id="46" x="269" y="939" width="222" height="15"/>
  <object id="47" x="610" y="941" width="215" height="8"/>
 </objectgroup>
 <objectgroup id="11" name="Connectors">
  <object id="7" name="exit_next_floor" x="223" y="114">
   <point/>
  </object>
  <object id="8" name="exit_back" x="544.667" y="936.667">
   <point/>
  </object>
 </objectgroup>
 <objectgroup id="12" name="Entities">
  <object id="9" name="torches_v1" x="352" y="97.333">
   <point/>
  </object>
  <object id="10" name="torches_v1" x="545.667" y="94.0003">
   <point/>
  </object>
  <object id="11" name="torches_v1" x="734.667" y="97.3337">
   <point/>
  </object>
  <object id="12" name="torches_v1" x="932" y="95.3337">
   <point/>
  </object>
  <object id="32" name="Spawn" x="672.666" y="483.333">
   <point/>
  </object>
 </objectgroup>
</map>
