<?xml version="1.0" encoding="UTF-8"?>
<map version="1.10" tiledversion="1.12.2" orientation="orthogonal" renderorder="right-down" width="3" height="6" tilewidth="64" tileheight="64" infinite="0" nextlayerid="11" nextobjectid="14">
 <tileset firstgid="1" source="act3.tsx"/>
 <tileset firstgid="137" source="act3_floor_64.tsx"/>
 <tileset firstgid="145" source="items.tsx"/>
 <layer id="1" name="Ground" width="3" height="6">
  <data encoding="csv">
0,141,0,
0,137,0,
144,139,142,
137,142,138,
140,142,140,
139,139,137
</data>
 </layer>
 <layer id="3" name="WallsBack_02" width="3" height="6">
  <data encoding="csv">
79,0,78,
0,0,0,
0,0,0,
0,0,0,
0,0,0,
0,0,0
</data>
 </layer>
 <layer id="2" name="WallsBack_01" width="3" height="6">
  <data encoding="csv">
57,37,58,
65,45,66,
78,0,79,
78,0,79,
78,0,79,
78,0,79
</data>
 </layer>
 <layer id="6" name="DecorBack_02" width="3" height="6">
  <data encoding="csv">
0,0,0,
232,0,210,
0,0,0,
0,0,0,
0,0,0,
0,0,0
</data>
 </layer>
 <layer id="4" name="WallsFront_01" width="3" height="6">
  <data encoding="csv">
0,0,0,
0,0,0,
0,0,0,
0,0,0,
57,35,58,
65,45,66
</data>
 </layer>
 <layer id="5" name="DecorFront_01" width="3" height="6">
  <data encoding="csv">
0,0,0,
0,0,0,
0,0,0,
0,0,0,
0,0,0,
234,0,233
</data>
 </layer>
 <objectgroup id="7" name="Barriers" visible="0">
  <object id="1" x="183.5" y="-3" width="3.5" height="393.5"/>
  <object id="2" x="-1" y="-6.5" width="11.5" height="394"/>
 </objectgroup>
 <objectgroup id="8" name="Blocked" visible="0">
  <object id="6" x="133" y="9" width="45" height="102"/>
  <object id="7" x="14.5" y="13" width="43" height="97"/>
  <object id="8" x="7.5" y="324" width="52.5" height="54"/>
  <object id="9" x="134" y="321.5" width="49.5" height="58.5"/>
 </objectgroup>
 <objectgroup id="9" name="Entities" visible="0">
  <object id="10" name="torches_v1" x="153" y="355.5">
   <point/>
  </object>
  <object id="11" name="torches_v1" x="41.5" y="93">
   <point/>
  </object>
 </objectgroup>
 <objectgroup id="10" name="Connectors" visible="0">
  <object id="12" name="exit_north" x="98.4384" y="30.6061">
   <point/>
  </object>
  <object id="13" name="exit_south" x="99.5" y="370">
   <point/>
  </object>
 </objectgroup>
</map>
