<?xml version="1.0" encoding="UTF-8"?>
<map version="1.10" tiledversion="1.12.2" orientation="orthogonal" renderorder="right-down" width="10" height="8" tilewidth="64" tileheight="64" infinite="0" nextlayerid="13" nextobjectid="13">
 <tileset firstgid="1" source="act3.tsx"/>
 <tileset firstgid="137" source="act3_floor_64.tsx"/>
 <tileset firstgid="145" source="items.tsx"/>
 <layer id="1" name="Ground" width="10" height="8">
  <data encoding="csv">
0,0,0,0,0,0,0,0,0,0,
0,0,0,0,0,0,0,0,0,0,
0,138,142,144,140,143,137,141,139,0,
0,143,141,139,144,144,142,143,140,0,
0,142,137,141,143,140,137,144,143,0,
0,141,137,138,140,144,140,137,141,0,
0,141,138,142,140,138,138,137,144,0,
0,143,138,137,140,141,144,144,138,0
</data>
 </layer>
 <layer id="8" name="GroundDetails_01" width="10" height="8">
  <data encoding="csv">
0,0,0,0,0,0,0,0,0,0,
0,0,0,0,0,0,0,0,0,0,
0,0,0,0,241,2147483875,0,0,227,0,
0,3221225699,0,0,0,0,0,0,0,0,
0,0,0,0,227,0,0,0,0,0,
0,214,0,0,0,0,0,0,214,0,
0,0,0,0,0,0,0,0,0,0,
0,0,0,0,0,0,0,0,0,0
</data>
 </layer>
 <layer id="9" name="GroundDetails_02" width="10" height="8">
  <data encoding="csv">
0,0,0,0,0,0,0,0,0,0,
0,0,0,0,0,0,0,0,0,0,
0,0,0,0,0,0,199,0,244,0,
0,0,0,0,0,0,0,0,0,0,
0,0,0,0,0,0,0,0,0,0,
0,0,0,0,0,0,216,0,0,0,
0,0,0,0,0,0,0,0,0,0,
0,0,0,0,0,0,0,0,0,0
</data>
 </layer>
 <layer id="2" name="WallsBack_01" width="10" height="8">
  <data encoding="csv">
0,34,34,34,34,34,34,19,34,0,
0,26,26,26,26,26,26,90,26,0,
0,0,0,0,0,0,0,0,0,0,
0,0,0,0,0,0,0,0,0,0,
0,0,0,0,0,0,0,0,0,0,
0,0,0,0,0,0,0,0,0,0,
0,0,0,0,0,0,0,0,0,0,
0,0,0,0,0,0,0,0,0,0
</data>
 </layer>
 <layer id="3" name="WallsFront_01" width="10" height="8">
  <data encoding="csv">
79,0,0,0,0,0,0,0,0,78,
79,0,0,27,0,0,0,0,0,78,
79,0,0,0,0,0,0,0,0,78,
79,0,0,0,0,0,0,0,0,78,
79,0,0,0,0,0,0,0,0,78,
79,0,0,0,0,0,0,0,0,78,
79,35,18,33,33,33,33,33,35,78,
79,27,45,26,26,43,26,26,26,78
</data>
 </layer>
 <layer id="5" name="DecorFront_01" width="10" height="8">
  <data encoding="csv">
0,0,0,0,0,0,0,0,0,0,
0,0,0,0,0,0,0,0,0,0,
0,0,0,0,0,0,0,0,0,0,
0,0,0,0,0,0,0,0,0,0,
0,0,0,0,0,0,0,0,0,0,
0,0,0,0,0,0,0,0,0,0,
0,0,0,0,0,0,0,0,0,0,
0,0,0,231,0,0,233,232,229,0
</data>
 </layer>
 <layer id="6" name="DecorFront_02" width="10" height="8">
  <data encoding="csv">
0,0,0,0,0,0,0,0,0,0,
0,0,0,0,0,0,0,0,0,0,
0,0,0,0,0,0,0,0,0,0,
0,0,0,0,0,0,0,0,0,0,
0,0,0,0,0,0,0,0,0,0,
0,0,0,0,0,0,0,0,0,0,
0,0,0,0,0,0,0,0,0,0,
0,0,0,224,0,0,222,0,0,0
</data>
 </layer>
 <layer id="7" name="DecorBack_01" width="10" height="8">
  <data encoding="csv">
0,0,0,0,0,0,0,0,0,0,
0,210,153,0,151,0,213,0,212,0,
0,0,165,0,0,0,0,0,0,0,
0,0,0,0,0,0,0,0,0,0,
0,0,0,0,0,0,0,0,0,0,
0,0,0,0,0,0,0,0,0,0,
0,0,0,0,0,0,0,0,0,0,
0,0,0,0,0,0,0,0,0,0
</data>
 </layer>
 <objectgroup id="10" name="Blocked">
  <object id="3" x="12.6667" y="13.3333" width="430.667" height="86.6667"/>
  <object id="4" x="522.667" y="18" width="98.6667" height="85.3333"/>
  <object id="5" x="20.6667" y="458" width="86.6667" height="38.6667"/>
  <object id="6" x="208.667" y="454" width="404.667" height="48"/>
 </objectgroup>
 <objectgroup id="11" name="Barriers">
  <object id="7" x="581.333" y="112" width="8.66667" height="347.333"/>
  <object id="8" x="48" y="86.6667" width="12.6667" height="377.333"/>
 </objectgroup>
 <objectgroup id="12" name="Entities">
  <object id="10" name="torches_v1" x="292" y="486">
   <point/>
  </object>
  <object id="11" name="torches_v1" x="356" y="99.3333">
   <point/>
  </object>
  <object id="12" name="torches_v1" x="547.333" y="489.333">
   <point/>
  </object>
 </objectgroup>
 <objectgroup id="4" name="Connectors">
  <object id="1" name="exit_up" x="481.332" y="108">
   <point/>
  </object>
  <object id="2" name="exit_south" x="158" y="501.333">
   <point/>
  </object>
 </objectgroup>
</map>
