<?xml version="1.0" encoding="UTF-8"?>
<map version="1.10" tiledversion="1.12.2" orientation="orthogonal" renderorder="right-down" width="15" height="8" tilewidth="64" tileheight="64" infinite="0" nextlayerid="4" nextobjectid="1">
 <tileset firstgid="1" source="act3_floor_64.tsx"/>
 <tileset firstgid="9" source="my_tiles_textured_v9.tsx"/>
 <layer id="1" name="Ground" width="15" height="8">
  <data encoding="csv">
2,5,8,8,6,8,2,2,2,1,5,8,8,3,8,
1,5,6,4,4,5,2,6,3,4,7,3,5,6,1,
6,6,5,6,5,7,2,3,7,4,8,7,1,5,8,
7,5,3,6,4,3,5,7,8,7,6,2,4,1,5,
1,5,2,1,5,5,1,6,2,1,8,1,5,8,2,
2,3,2,4,7,6,3,3,5,6,5,6,6,7,3,
8,7,2,5,4,5,8,7,3,1,3,8,2,3,1,
7,3,1,5,4,8,8,7,1,1,2,1,4,8,7
</data>
 </layer>
 <layer id="3" name="WallsBack_02" width="15" height="8">
  <data encoding="csv">
0,0,0,0,9,10,0,0,0,0,0,0,0,0,0,
0,9,10,0,61,0,0,0,0,0,0,0,0,0,0,
0,61,0,0,0,0,0,0,0,0,0,0,0,0,0,
0,0,0,0,0,0,0,0,0,0,0,0,0,0,0,
0,0,0,0,0,0,0,0,0,0,0,0,0,0,0,
0,0,0,0,0,0,0,0,0,0,0,0,0,0,0,
0,0,0,0,0,0,0,0,0,0,0,0,0,0,0,
0,0,0,0,0,0,0,0,0,0,0,0,0,0,0
</data>
 </layer>
 <layer id="2" name="WallsBack_01" width="15" height="8">
  <data encoding="csv">
0,0,0,0,0,10,10,10,10,10,10,10,10,0,0,
0,0,10,10,64,19,19,19,19,19,19,19,19,0,0,
9,64,19,19,73,0,0,0,0,0,0,0,0,0,61,
18,73,0,0,0,0,0,0,0,0,0,0,0,0,0,
0,0,0,0,0,0,0,0,0,0,0,0,0,0,61,
18,0,0,0,0,0,0,0,0,0,0,0,0,0,61,
18,0,0,0,0,0,0,0,0,0,0,0,0,0,42,
43,2147483685,39,39,39,39,39,39,39,39,39,39,39,37,2147483691
</data>
 </layer>
</map>
