<?xml version="1.0" encoding="UTF-8"?>
<map version="1.10" tiledversion="1.12.2" orientation="orthogonal" renderorder="right-down" width="15" height="10" tilewidth="64" tileheight="64" infinite="0" nextlayerid="17" nextobjectid="21">
 <tileset firstgid="1" source="act3.tsx"/>
 <tileset firstgid="137" source="act3_floor_64.tsx"/>
 <tileset firstgid="145" source="items.tsx"/>
 <layer id="1" name="Ground" width="15" height="10">
  <data encoding="csv">
0,0,0,0,0,0,0,139,0,0,0,0,0,0,0,
0,0,0,0,0,0,0,141,0,0,0,0,0,0,0,
0,143,143,138,142,143,141,142,141,143,138,141,144,137,0,
0,143,143,141,144,137,138,138,144,138,140,137,140,140,0,
0,139,137,139,138,137,138,137,143,137,143,139,141,143,0,
0,139,142,142,142,139,137,143,140,139,141,138,137,139,0,
0,140,141,138,138,140,137,138,142,139,137,144,139,137,0,
0,137,137,139,137,138,143,139,139,139,138,137,144,139,0,
0,141,139,140,138,143,139,140,141,139,142,137,139,138,0,
0,0,0,0,0,0,0,0,0,0,0,0,0,0,0
</data>
 </layer>
 <layer id="8" name="GroundDetails_01" width="15" height="10">
  <data encoding="csv">
0,0,0,0,0,0,0,0,0,0,0,0,0,0,0,
0,0,0,0,0,0,0,0,0,0,0,0,0,0,0,
0,184,0,0,0,0,0,208,0,0,0,0,0,172,0,
0,0,0,247,0,0,0,0,219,0,0,0,0,0,0,
0,0,0,0,0,182,0,0,0,0,0,181,0,0,0,
0,0,0,0,0,0,0,0,0,0,0,0,244,0,0,
0,199,0,0,0,0,0,183,0,0,0,0,0,0,0,
0,0,0,245,0,0,0,0,0,0,0,0,0,0,0,
0,0,0,0,0,0,0,171,0,0,0,0,0,218,0,
0,0,0,0,0,0,0,0,0,0,0,0,0,0,0
</data>
 </layer>
 <layer id="9" name="GroundDetails_02" width="15" height="10">
  <data encoding="csv">
0,0,0,0,0,0,0,0,0,0,0,0,0,0,0,
0,0,0,0,0,0,0,0,0,0,0,0,0,0,0,
0,179,0,0,0,0,0,0,0,0,0,0,0,175,0,
0,0,0,195,0,0,0,0,0,0,0,0,0,0,0,
0,0,0,0,0,0,0,0,0,0,0,0,0,0,0,
0,0,0,0,0,0,0,0,0,0,0,0,0,0,0,
0,0,0,0,0,0,0,0,0,0,0,236,0,0,0,
0,0,0,0,0,0,0,0,0,0,0,0,0,0,0,
0,0,0,0,0,0,0,0,0,0,0,0,0,0,0,
0,0,0,0,0,0,0,0,0,0,0,0,0,0,0
</data>
 </layer>
 <layer id="3" name="WallsBack_03" width="15" height="10">
  <data encoding="csv">
0,0,0,0,0,0,79,0,78,0,0,0,0,0,0,
0,0,0,0,0,0,0,0,0,0,0,0,0,0,0,
0,0,0,0,0,0,0,0,0,0,0,0,0,0,0,
0,0,0,0,78,0,0,0,0,0,0,0,0,0,0,
0,0,0,0,78,0,0,0,0,0,0,0,0,0,0,
0,0,0,0,0,0,0,0,0,0,0,0,0,0,0,
0,0,0,0,0,0,0,0,0,0,0,0,0,0,0,
0,0,0,0,0,0,0,0,0,0,0,0,0,0,0,
0,0,0,0,0,0,0,0,0,0,0,0,0,0,0,
79,0,0,0,0,0,0,0,0,0,0,0,0,0,78
</data>
 </layer>
 <layer id="5" name="WallsFront_02" width="15" height="10">
  <data encoding="csv">
0,0,0,0,0,0,0,0,0,0,0,0,0,0,0,
0,0,0,0,0,0,0,0,0,0,0,0,0,0,0,
0,0,0,0,0,0,0,0,0,0,0,0,0,0,0,
0,0,0,0,0,0,0,0,0,0,0,0,0,0,0,
0,57,35,36,35,35,35,35,35,35,35,58,0,0,0,
0,99,26,26,27,26,26,43,26,26,26,100,0,0,0,
0,0,0,0,0,0,0,0,0,0,0,0,0,0,0,
0,0,0,0,0,0,0,0,0,0,0,0,0,0,0,
0,0,0,0,0,0,0,0,0,0,0,0,0,0,0,
0,0,0,0,0,0,0,0,0,0,0,0,0,0,0
</data>
 </layer>
 <layer id="2" name="WallsBack_01" width="15" height="10">
  <data encoding="csv">
50,57,18,18,20,20,23,19,23,20,20,18,18,58,49,
50,65,26,26,26,26,31,45,31,13,13,28,26,66,49,
50,0,0,0,0,0,0,0,0,0,0,0,0,0,49,
50,0,0,0,0,0,0,0,0,0,0,0,0,0,49,
50,0,0,0,0,0,0,0,0,0,0,0,0,0,49,
50,0,0,0,0,0,0,0,0,0,0,0,0,0,49,
50,0,0,0,0,0,0,0,0,0,0,0,0,0,49,
50,0,0,0,0,0,0,0,0,0,0,0,0,0,49,
50,0,0,0,0,0,0,0,0,0,0,0,0,0,49,
0,0,0,0,0,0,0,0,0,0,0,0,0,0,0
</data>
 </layer>
 <layer id="4" name="WallsFront_01" width="15" height="10">
  <data encoding="csv">
0,0,0,0,0,0,0,0,0,0,0,0,0,0,0,
0,0,0,0,0,0,0,0,0,0,0,0,0,0,0,
0,0,0,0,0,0,0,0,0,0,0,0,0,0,0,
0,0,0,0,0,0,0,0,0,0,0,0,0,0,0,
0,0,0,0,0,0,0,0,0,0,0,0,0,0,0,
0,0,0,0,0,0,0,0,0,0,0,0,0,0,0,
0,0,0,0,0,0,0,0,0,0,0,0,0,0,0,
0,0,0,0,0,0,0,0,0,0,0,0,0,0,0,
0,57,33,33,33,33,33,34,33,33,33,33,33,58,0,
0,99,26,26,27,10,13,89,10,26,10,29,13,104,0
</data>
 </layer>
 <layer id="10" name="DecorFront_01" width="15" height="10">
  <data encoding="csv">
0,0,0,0,0,0,0,0,0,0,0,0,0,0,0,
0,0,0,0,0,0,0,0,0,0,0,0,0,0,0,
0,0,0,0,0,0,0,0,0,0,0,0,0,0,0,
0,0,0,0,0,0,0,0,0,0,0,0,0,0,0,
0,0,0,0,0,0,0,0,0,0,0,0,0,0,0,
0,0,0,0,0,0,0,0,0,0,0,0,0,0,0,
0,0,0,0,0,0,0,0,0,0,0,0,0,0,0,
0,0,0,0,0,0,0,0,0,0,0,0,0,0,0,
0,0,0,0,0,0,0,0,0,0,209,0,0,0,0,
0,0,222,0,222,232,233,0,234,204,221,0,210,0,0
</data>
 </layer>
 <layer id="11" name="DecorFront_02" width="15" height="10">
  <data encoding="csv">
0,0,0,0,0,0,0,0,0,0,0,0,0,0,0,
0,0,0,0,0,0,0,0,0,0,0,0,0,0,0,
0,0,0,0,0,0,0,0,0,0,0,0,0,0,0,
0,0,0,0,0,0,0,0,0,0,0,0,0,0,0,
0,0,0,0,0,0,0,0,0,0,0,0,0,0,0,
0,0,0,0,0,0,0,0,0,0,0,0,0,0,0,
0,0,0,0,0,0,0,0,0,0,0,0,0,0,0,
0,0,0,0,0,0,0,0,0,0,0,0,0,0,0,
0,0,0,0,0,0,0,0,0,0,0,0,0,0,0,
0,0,0,0,0,0,212,0,212,0,0,0,0,0,0
</data>
 </layer>
 <layer id="7" name="DecorBack_02" width="15" height="10">
  <data encoding="csv">
0,0,0,0,0,0,0,0,0,0,0,0,0,0,0,
0,211,0,232,0,212,233,0,0,0,232,0,231,0,0,
0,0,0,0,0,0,0,0,0,0,0,0,0,0,0,
0,0,0,0,0,0,0,0,0,0,0,0,0,0,0,
0,0,0,0,0,0,0,0,0,0,0,0,0,0,0,
0,0,0,233,0,0,224,0,224,0,234,0,0,0,0,
0,0,0,0,0,0,0,0,0,0,0,0,0,0,0,
0,0,0,0,0,0,0,0,0,0,0,0,0,0,0,
0,0,0,0,0,0,0,0,0,0,0,0,0,0,0,
0,0,0,0,0,0,0,0,0,0,0,0,0,0,0
</data>
 </layer>
 <layer id="6" name="DecorBack_01" width="15" height="10">
  <data encoding="csv">
0,0,0,0,0,0,0,0,0,0,209,0,0,0,0,
0,0,0,233,229,229,0,0,0,210,221,0,222,0,0,
0,0,0,0,0,0,0,0,0,0,0,0,0,0,0,
0,0,0,0,0,0,0,0,0,0,0,0,0,0,0,
0,0,0,0,0,0,0,0,0,0,0,0,0,0,0,
0,0,242,242,242,242,242,242,242,242,242,0,0,0,0,
0,0,0,0,0,0,0,0,0,0,0,0,0,0,0,
0,0,0,0,0,0,0,0,0,0,0,0,0,0,0,
0,0,0,0,0,0,0,0,0,0,0,0,0,0,0,
0,0,0,0,0,0,0,0,0,0,0,0,0,0,0
</data>
 </layer>
 <objectgroup id="12" name="Entities">
  <object id="1" name="torches_v1" x="288" y="98.6667">
   <point/>
  </object>
  <object id="2" name="torches_v1" x="671.333" y="95.3333">
   <point/>
  </object>
  <object id="3" name="torches_v1" x="611.333" y="352.667">
   <point/>
  </object>
  <object id="4" name="torches_v1" x="287.333" y="351.333">
   <point/>
  </object>
  <object id="5" name="torches_v1" x="232.667" y="614">
   <point/>
  </object>
  <object id="6" name="torches_v1" x="673.333" y="610">
   <point/>
  </object>
  <object id="20" name="Spawn" x="480" y="549.333">
   <point/>
  </object>
 </objectgroup>
 <objectgroup id="14" name="Connectors">
  <object id="7" name="exit_north" x="479.333" y="32">
   <point/>
  </object>
  <object id="8" name="exit_back" x="480.667" y="616.667">
   <point/>
  </object>
 </objectgroup>
 <objectgroup id="15" name="Barriers">
  <object id="12" x="261.333" y="197.333" width="6.66667" height="104"/>
 </objectgroup>
 <objectgroup id="16" name="Blocked">
  <object id="9" x="14" y="72.6667" width="412" height="40.6667"/>
  <object id="10" x="532" y="75.3333" width="409.333" height="32.6667"/>
  <object id="11" x="8" y="339.333" width="734.667" height="24"/>
  <object id="13" x="528" y="592" width="411.333" height="36"/>
  <object id="14" x="16" y="594" width="414" height="24"/>
  <object id="15" x="904" y="38.6667" width="44" height="590"/>
  <object id="16" x="12.6667" y="14.6667" width="40.6667" height="605.333"/>
  <object id="17" x="47.3333" y="15.3333" width="380" height="24.6667"/>
  <object id="18" x="538" y="12" width="410" height="28.6667"/>
 </objectgroup>
</map>
